src/icons/icons_set_04/032-coeur-contour.svg

<?xml version="1.0" encoding="UTF-8"?>
<svg width="50px" height="50px" viewBox="0 0 50 50" version="1.1" xmlns="http://www.w3.org/2000/svg" xmlns:xlink="http://www.w3.org/1999/xlink">
    <!-- Generator: Sketch 52.2 (67145) - http://www.bohemiancoding.com/sketch -->
    <title>032-coeur-contour</title>
    <desc>Created with Sketch.</desc>
    <g id="032-coeur-contour" stroke="none" stroke-width="1" fill="none" fill-rule="evenodd" stroke-linecap="round" stroke-linejoin="round">
        <g id="Group" transform="translate(3.995000, 6.480799)" fill-rule="nonzero" stroke="#000000" stroke-width="8">
            <g id="133-coeur-contour">
                <g id="ICONSET-01">
                    <g id="133-coeur-contour">
                        <path d="M20.9950568,36.9016834 C20.1472678,36.9043703 19.3336304,36.5678163 18.7354657,35.9670231 L4.22585799,21.449958 C0.872426204,18.5060467 -0.595323966,13.9595303 0.403732444,9.61050687 C1.40278885,5.26148344 4.70753766,1.81130414 9.00953271,0.625995286 C13.3115278,-0.559313571 17.917002,0.711398456 21.0025142,3.93501953 C24.0916443,0.728540545 28.6883722,-0.529293391 32.9796967,0.657621647 C37.2710212,1.84453669 40.5680853,5.28567344 41.5704899,9.6238087 C42.5728945,13.9619439 41.1197303,18.5007068 37.784142,21.449958 L23.2670769,35.9670231 C22.6657233,36.5706568 21.8470937,36.9074234 20.9950568,36.9016834 Z" id="Shape"></path>
                    </g>
                </g>
            </g>
        </g>
    </g>
</svg>

<svg height="50" viewBox="0 0 50 50" width="50" xmlns="http://www.w3.org/2000/svg"><path d="m20.9950568 36.9016834c-.847789.0026869-1.6614264-.3338671-2.2595911-.9346603l-14.50960771-14.5170651c-3.35343179-2.9439113-4.82118196-7.4904277-3.82212555-11.83945113s4.30380522-7.79920273 8.60580027-8.98451158c4.30199509-1.18530886 8.90746929.08540317 11.99298149 3.30902424 3.0891301-3.20647898 7.685858-4.46431292 11.9771825-3.27739788s7.5883886 4.62805179 8.5907932 8.96618705c1.0024046 4.3381352-.4507596 8.8768981-3.7863479 11.8261493l-14.5170651 14.5170651c-.6013536.6036337-1.4199832.9404003-2.2720201.9346603z" fill="none" stroke="#000" stroke-linecap="round" stroke-linejoin="round" stroke-width="8" transform="translate(3.995 6.480799)"/></svg>
